X:1
T: Bruachan Loch Nis
T: The Banks of Loch Ness
R:Strathspey
Q:128
K:Gm
M:4/4
L:1/16
|:F2|DG3 G3A B3c d4|FF3 F3D F4 FB3|GG3 G3A B3d df3|dcBA d3^F G4-G2F2|
DG3 G3A B3c d4|FF3 F3D F4 FB3|GG3 G3A B3d df3|dcBA d3^F G4-G2f2|
d3B f3B g3B d3f|FF3 F3D F4 Ff3|d3f B3d c3B cd3|GG3 G3^F G4-G2f2|
d3B f3B g3B f3e|d3B c3A B3G F2D2|b3a g3f d2b2 a2B2|A2e2 d2^F2 G4-G2:|
